svg/edit/uEA79-split-polygon.svg

<?xml version="1.0" encoding="UTF-8" standalone="no"?>
<svg
   xmlns:dc="http://purl.org/dc/elements/1.1/"
   xmlns:cc="http://creativecommons.org/ns#"
   xmlns:rdf="http://www.w3.org/1999/02/22-rdf-syntax-ns#"
   xmlns:svg="http://www.w3.org/2000/svg"
   xmlns="http://www.w3.org/2000/svg"
   xmlns:sodipodi="http://sodipodi.sourceforge.net/DTD/sodipodi-0.dtd"
   xmlns:inkscape="http://www.inkscape.org/namespaces/inkscape"
   version="1.1"
   width="100"
   height="100"
   id="svg4460"
   inkscape:version="1.0 (4035a4fb49, 2020-05-01)"
   sodipodi:docname="uEA78-split-polygon.svg">
  <sodipodi:namedview
     pagecolor="#ffffff"
     bordercolor="#666666"
     borderopacity="1"
     objecttolerance="10"
     gridtolerance="10"
     guidetolerance="10"
     inkscape:pageopacity="0"
     inkscape:pageshadow="2"
     inkscape:window-width="1920"
     inkscape:window-height="1017"
     id="namedview11"
     showgrid="false"
     inkscape:zoom="5.6568542"
     inkscape:cx="21.592348"
     inkscape:cy="58.240203"
     inkscape:window-x="-8"
     inkscape:window-y="-8"
     inkscape:window-maximized="1"
     inkscape:current-layer="svg4460"
     inkscape:document-rotation="0" />
  <defs
     id="defs4462" />
  <metadata
     id="metadata4465">
    <rdf:RDF>
      <cc:Work
         rdf:about="">
        <dc:format>image/svg+xml</dc:format>
        <dc:type
           rdf:resource="http://purl.org/dc/dcmitype/StillImage" />
        <dc:title />
      </cc:Work>
    </rdf:RDF>
  </metadata>
  <path
     id="rect830"
     style="color:#000000;overflow:visible;fill:#000080;stroke:none;stroke-width:7.02209;stroke-linecap:round;stroke-linejoin:round;stroke-dasharray:14.0442, 7.02209;stroke-dashoffset:35.1104;stop-color:#000000"
     d="m 60.713562,37.459663 c -0.339019,-0.0054 -0.677267,0.03538 -1.011719,0.125 l 8.095703,30.212891 -30.212891,-8.095703 c -0.716928,2.675614 1.720937,5.636925 5.466797,6.640625 l 26.230469,6.992187 2.365234,8.830078 c -0.164443,-0.0033 -0.32869,-0.0042 -0.49414,0.0039 a 2,2 0 0 0 -1.107422,-0.02344 2,2 0 0 0 -0.949219,0.574219 c -1.498918,0.770725 -2.673007,2.037095 -3.230469,3.613281 -0.681469,1.926802 -0.73189,4.172549 -0.125,6.437499 0.60689,2.26494 1.774555,4.1838 3.328125,5.51172 1.553574,1.32793 3.643521,2.08964 5.712891,1.53516 2.069369,-0.55449 3.496267,-2.25874 4.177734,-4.18555 0.68147,-1.9268 0.733843,-4.172559 0.126954,-6.437501 -0.289647,-1.080975 -0.71001,-2.079868 -1.236329,-2.976562 l -3.041015,-11.408203 11.408203,3.041015 c 0.896694,0.526319 1.895587,0.946682 2.976562,1.236329 2.264942,0.606889 4.510699,0.554516 6.4375,-0.126954 1.926812,-0.681467 3.631062,-2.108365 4.185547,-4.177734 0.554483,-2.06937 -0.207222,-4.159317 -1.535156,-5.712891 -1.327924,-1.55357 -3.246777,-2.721235 -5.511719,-3.328125 -2.264951,-0.60689 -4.510698,-0.556469 -6.4375,0.125 -1.576186,0.557462 -2.842556,1.731551 -3.613281,3.230469 a 2,2 0 0 0 -0.574219,0.949219 2,2 0 0 0 0.02344,1.107422 c -0.0082,0.16545 -0.0072,0.329697 -0.0039,0.49414 L 73.334655,69.281929 66.342468,43.05146 C 65.46423,39.773833 63.086691,37.497326 60.713562,37.459663 Z M 89.50653,69.328804 c 0.694866,-0.01471 1.45452,0.068 2.228516,0.275391 1.547993,0.414783 2.79483,1.232602 3.505859,2.064453 0.711029,0.83185 0.859993,1.529134 0.712891,2.078125 -0.147101,0.548989 -0.622602,1.076517 -1.654297,1.441406 -1.031694,0.364889 -2.52232,0.44994 -4.070312,0.03516 -1.547993,-0.414784 -2.794831,-1.234556 -3.50586,-2.066406 -0.711029,-0.83185 -0.861945,-1.527182 -0.714844,-2.076172 0.147102,-0.548991 0.624556,-1.076518 1.65625,-1.441406 0.515848,-0.182445 1.146932,-0.295841 1.841797,-0.310547 z M 71.520202,85.95771 c 0.46604,0.01338 1.012831,0.232354 1.636719,0.765625 0.83185,0.711029 1.651622,1.957867 2.066406,3.50586 0.414784,1.547992 0.329733,3.038615 -0.03516,4.070315 -0.364889,1.03169 -0.892417,1.50719 -1.441406,1.65429 -0.548991,0.14711 -1.246275,-0.002 -2.078125,-0.71289 -0.831851,-0.71103 -1.64967,-1.95786 -2.064453,-3.505856 -0.414783,-1.547993 -0.329733,-3.038618 0.03516,-4.070313 0.364888,-1.031694 0.892415,-1.509148 1.441406,-1.65625 0.137248,-0.03678 0.284107,-0.05524 0.439453,-0.05078 z" />
  <path
     id="path905"
     d="M 41.785156 0 A 3.50035 3.50035 0 0 0 41.386719 0.01953125 L 3.1367188 4.0195312 A 3.50035 3.50035 0 0 0 0 7.5 L 0 53 A 3.50035 3.50035 0 0 0 3.7480469 56.490234 L 47.9375 53.351562 A 3.50035 3.50035 0 0 0 51.009766 50.970703 L 61.570312 19.359375 A 3.50035 3.50035 0 0 0 60.582031 15.640625 L 44.082031 0.890625 A 3.50035 3.50035 0 0 0 41.785156 0 z M 40.572266 7.1425781 L 54.201172 19.324219 L 45.109375 46.535156 L 7 49.244141 L 7 10.652344 L 40.572266 7.1425781 z "
     style="color:#000000;font-style:normal;font-variant:normal;font-weight:normal;font-stretch:normal;font-size:medium;line-height:normal;font-family:sans-serif;font-variant-ligatures:normal;font-variant-position:normal;font-variant-caps:normal;font-variant-numeric:normal;font-variant-alternates:normal;font-variant-east-asian:normal;font-feature-settings:normal;font-variation-settings:normal;text-indent:0;text-align:start;text-decoration:none;text-decoration-line:none;text-decoration-style:solid;text-decoration-color:#000000;letter-spacing:normal;word-spacing:normal;text-transform:none;writing-mode:lr-tb;direction:ltr;text-orientation:mixed;dominant-baseline:auto;baseline-shift:baseline;text-anchor:start;white-space:normal;shape-padding:0;shape-margin:0;inline-size:0;clip-rule:nonzero;display:inline;overflow:visible;visibility:visible;isolation:auto;mix-blend-mode:normal;color-interpolation:sRGB;color-interpolation-filters:linearRGB;solid-color:#000000;solid-opacity:1;vector-effect:none;fill:#000000;fill-opacity:1;fill-rule:evenodd;stroke:none;stroke-width:7;stroke-linecap:round;stroke-linejoin:round;stroke-miterlimit:4;stroke-dasharray:none;stroke-dashoffset:0;stroke-opacity:1;color-rendering:auto;image-rendering:auto;shape-rendering:auto;text-rendering:auto;enable-background:accumulate;stop-color:#000000;stop-opacity:1;opacity:1" />
  <path
     id="path897"
     d="m 57.4375,54.044922 -3.462891,3.607422 3.605469,3.46289 3.462891,-3.605468 z"
     style="color:#000000;font-style:normal;font-variant:normal;font-weight:normal;font-stretch:normal;font-size:medium;line-height:normal;font-family:sans-serif;font-variant-ligatures:normal;font-variant-position:normal;font-variant-caps:normal;font-variant-numeric:normal;font-variant-alternates:normal;font-variant-east-asian:normal;font-feature-settings:normal;font-variation-settings:normal;text-indent:0;text-align:start;text-decoration:none;text-decoration-line:none;text-decoration-style:solid;text-decoration-color:#000000;letter-spacing:normal;word-spacing:normal;text-transform:none;writing-mode:lr-tb;direction:ltr;text-orientation:mixed;dominant-baseline:auto;baseline-shift:baseline;text-anchor:start;white-space:normal;shape-padding:0;shape-margin:0;inline-size:0;clip-rule:nonzero;display:inline;overflow:visible;visibility:visible;isolation:auto;mix-blend-mode:normal;color-interpolation:sRGB;color-interpolation-filters:linearRGB;solid-color:#000000;solid-opacity:1;vector-effect:none;fill:#000000;fill-opacity:1;fill-rule:evenodd;stroke:none;stroke-width:5;stroke-linecap:butt;stroke-linejoin:miter;stroke-miterlimit:4;stroke-dasharray:10, 5;stroke-dashoffset:50;stroke-opacity:1;color-rendering:auto;image-rendering:auto;shape-rendering:auto;text-rendering:auto;enable-background:accumulate;stop-color:#000000;stop-opacity:1;opacity:1" />
  <path
     id="path893"
     d="m 35.800781,33.265625 -3.464843,3.605469 7.21289,6.927734 3.462891,-3.605469 z"
     style="color:#000000;font-style:normal;font-variant:normal;font-weight:normal;font-stretch:normal;font-size:medium;line-height:normal;font-family:sans-serif;font-variant-ligatures:normal;font-variant-position:normal;font-variant-caps:normal;font-variant-numeric:normal;font-variant-alternates:normal;font-variant-east-asian:normal;font-feature-settings:normal;font-variation-settings:normal;text-indent:0;text-align:start;text-decoration:none;text-decoration-line:none;text-decoration-style:solid;text-decoration-color:#000000;letter-spacing:normal;word-spacing:normal;text-transform:none;writing-mode:lr-tb;direction:ltr;text-orientation:mixed;dominant-baseline:auto;baseline-shift:baseline;text-anchor:start;white-space:normal;shape-padding:0;shape-margin:0;inline-size:0;clip-rule:nonzero;display:inline;overflow:visible;visibility:visible;isolation:auto;mix-blend-mode:normal;color-interpolation:sRGB;color-interpolation-filters:linearRGB;solid-color:#000000;solid-opacity:1;vector-effect:none;fill:#000000;fill-opacity:1;fill-rule:evenodd;stroke:none;stroke-width:5;stroke-linecap:butt;stroke-linejoin:miter;stroke-miterlimit:4;stroke-dasharray:10, 5;stroke-dashoffset:50;stroke-opacity:1;color-rendering:auto;image-rendering:auto;shape-rendering:auto;text-rendering:auto;enable-background:accumulate;stop-color:#000000;stop-opacity:1;opacity:1" />
  <path
     id="path891"
     d="m 24.980469,22.875 -3.462891,3.607422 7.212891,6.925781 3.46289,-3.605469 z"
     style="color:#000000;font-style:normal;font-variant:normal;font-weight:normal;font-stretch:normal;font-size:medium;line-height:normal;font-family:sans-serif;font-variant-ligatures:normal;font-variant-position:normal;font-variant-caps:normal;font-variant-numeric:normal;font-variant-alternates:normal;font-variant-east-asian:normal;font-feature-settings:normal;font-variation-settings:normal;text-indent:0;text-align:start;text-decoration:none;text-decoration-line:none;text-decoration-style:solid;text-decoration-color:#000000;letter-spacing:normal;word-spacing:normal;text-transform:none;writing-mode:lr-tb;direction:ltr;text-orientation:mixed;dominant-baseline:auto;baseline-shift:baseline;text-anchor:start;white-space:normal;shape-padding:0;shape-margin:0;inline-size:0;clip-rule:nonzero;display:inline;overflow:visible;visibility:visible;isolation:auto;mix-blend-mode:normal;color-interpolation:sRGB;color-interpolation-filters:linearRGB;solid-color:#000000;solid-opacity:1;vector-effect:none;fill:#000000;fill-opacity:1;fill-rule:evenodd;stroke:none;stroke-width:5;stroke-linecap:butt;stroke-linejoin:miter;stroke-miterlimit:4;stroke-dasharray:10, 5;stroke-dashoffset:50;stroke-opacity:1;color-rendering:auto;image-rendering:auto;shape-rendering:auto;text-rendering:auto;enable-background:accumulate;stop-color:#000000;stop-opacity:1;opacity:1" />
  <path
     id="path887"
     d="m 14.162109,12.486328 -3.46289,3.605469 7.21289,6.927734 3.462891,-3.607422 z"
     style="color:#000000;font-style:normal;font-variant:normal;font-weight:normal;font-stretch:normal;font-size:medium;line-height:normal;font-family:sans-serif;font-variant-ligatures:normal;font-variant-position:normal;font-variant-caps:normal;font-variant-numeric:normal;font-variant-alternates:normal;font-variant-east-asian:normal;font-feature-settings:normal;font-variation-settings:normal;text-indent:0;text-align:start;text-decoration:none;text-decoration-line:none;text-decoration-style:solid;text-decoration-color:#000000;letter-spacing:normal;word-spacing:normal;text-transform:none;writing-mode:lr-tb;direction:ltr;text-orientation:mixed;dominant-baseline:auto;baseline-shift:baseline;text-anchor:start;white-space:normal;shape-padding:0;shape-margin:0;inline-size:0;clip-rule:nonzero;display:inline;overflow:visible;visibility:visible;isolation:auto;mix-blend-mode:normal;color-interpolation:sRGB;color-interpolation-filters:linearRGB;solid-color:#000000;solid-opacity:1;vector-effect:none;fill:#000000;fill-opacity:1;fill-rule:evenodd;stroke:none;stroke-width:5;stroke-linecap:butt;stroke-linejoin:miter;stroke-miterlimit:4;stroke-dasharray:10, 5;stroke-dashoffset:50;stroke-opacity:1;color-rendering:auto;image-rendering:auto;shape-rendering:auto;text-rendering:auto;enable-background:accumulate;stop-color:#000000;stop-opacity:1;opacity:1" />
</svg>

<?xml version="1.0" encoding="UTF-8" standalone="no"?>
<svg
   xmlns:dc="http://purl.org/dc/elements/1.1/"
   xmlns:cc="http://creativecommons.org/ns#"
   xmlns:rdf="http://www.w3.org/1999/02/22-rdf-syntax-ns#"
   xmlns:svg="http://www.w3.org/2000/svg"
   xmlns="http://www.w3.org/2000/svg"
   xmlns:sodipodi="http://sodipodi.sourceforge.net/DTD/sodipodi-0.dtd"
   xmlns:inkscape="http://www.inkscape.org/namespaces/inkscape"
   sodipodi:docname="uEAA8-convex-hull.svg"
   inkscape:version="1.0 (4035a4fb49, 2020-05-01)"
   id="svg4460"
   height="100"
   width="100"
   version="1.1">
  <sodipodi:namedview
     inkscape:document-rotation="0"
     inkscape:current-layer="svg4460"
     inkscape:window-maximized="1"
     inkscape:window-y="-8"
     inkscape:window-x="-8"
     inkscape:cy="58.240203"
     inkscape:cx="21.592348"
     inkscape:zoom="5.6568542"
     showgrid="false"
     id="namedview11"
     inkscape:window-height="1017"
     inkscape:window-width="1920"
     inkscape:pageshadow="2"
     inkscape:pageopacity="0"
     guidetolerance="10"
     gridtolerance="10"
     objecttolerance="10"
     borderopacity="1"
     bordercolor="#666666"
     pagecolor="#ffffff" />
  <defs
     id="defs4462" />
  <metadata
     id="metadata4465">
    <rdf:RDF>
      <cc:Work
         rdf:about="">
        <dc:format>image/svg+xml</dc:format>
        <dc:type
           rdf:resource="http://purl.org/dc/dcmitype/StillImage" />
        <dc:title />
      </cc:Work>
    </rdf:RDF>
  </metadata>
  <path
     d="M 41.785156 0 A 3.50035 3.50035 0 0 0 41.386719 0.01953125 L 3.1367188 4.0195312 A 3.50035 3.50035 0 0 0 0 7.5 L 0 53 A 3.50035 3.50035 0 0 0 3.7480469 56.490234 L 47.9375 53.351562 A 3.50035 3.50035 0 0 0 51.009766 50.970703 L 61.570312 19.359375 A 3.50035 3.50035 0 0 0 60.582031 15.640625 L 44.082031 0.890625 A 3.50035 3.50035 0 0 0 41.785156 0 z M 40.572266 7.1425781 L 54.201172 19.324219 L 45.109375 46.535156 L 7 49.244141 L 7 10.652344 L 40.572266 7.1425781 z M 14.162109 12.486328 L 10.699219 16.091797 L 17.912109 23.019531 L 21.375 19.412109 L 14.162109 12.486328 z M 24.980469 22.875 L 21.517578 26.482422 L 28.730469 33.408203 L 32.193359 29.802734 L 24.980469 22.875 z M 35.800781 33.265625 L 32.335938 36.871094 L 39.548828 43.798828 L 43.011719 40.193359 L 35.800781 33.265625 z M 60.712891 37.458984 C 60.373872 37.453584 60.035624 37.494364 59.701172 37.583984 L 67.796875 67.796875 L 37.583984 59.701172 C 36.867056 62.376786 39.304921 65.338097 43.050781 66.341797 L 69.28125 73.333984 L 71.646484 82.164062 C 71.482041 82.160763 71.317794 82.159869 71.152344 82.167969 A 2 2 0 0 0 70.044922 82.144531 A 2 2 0 0 0 69.095703 82.71875 C 67.596785 83.489475 66.422696 84.755845 65.865234 86.332031 C 65.183765 88.258833 65.133344 90.504581 65.740234 92.769531 C 66.347124 95.034471 67.514789 96.95333 69.068359 98.28125 C 70.621933 99.60918 72.71188 100.37089 74.78125 99.816406 C 76.850619 99.261916 78.277517 97.557669 78.958984 95.630859 C 79.640454 93.704059 79.692827 91.458301 79.085938 89.193359 C 78.79629 88.112384 78.375928 87.113491 77.849609 86.216797 L 74.808594 74.808594 L 86.216797 77.849609 C 87.113491 78.375928 88.112384 78.796291 89.193359 79.085938 C 91.458301 79.692826 93.704058 79.640454 95.630859 78.958984 C 97.557671 78.277517 99.261921 76.850619 99.816406 74.78125 C 100.37089 72.71188 99.609184 70.621933 98.28125 69.068359 C 96.953326 67.514789 95.034473 66.347124 92.769531 65.740234 C 90.50458 65.133344 88.258833 65.183765 86.332031 65.865234 C 84.755845 66.422696 83.489475 67.596785 82.71875 69.095703 A 2 2 0 0 0 82.144531 70.044922 A 2 2 0 0 0 82.167969 71.152344 C 82.159769 71.317794 82.160762 71.482041 82.164062 71.646484 L 73.333984 69.28125 L 66.341797 43.050781 C 65.463559 39.773154 63.08602 37.496647 60.712891 37.458984 z M 57.4375 54.044922 L 53.974609 57.652344 L 57.580078 61.115234 L 61.042969 57.509766 L 57.4375 54.044922 z M 89.505859 69.328125 C 90.200725 69.313415 90.960379 69.396125 91.734375 69.603516 C 93.282368 70.018299 94.529205 70.836118 95.240234 71.667969 C 95.951263 72.499819 96.100227 73.197103 95.953125 73.746094 C 95.806024 74.295083 95.330523 74.822611 94.298828 75.1875 C 93.267134 75.552389 91.776508 75.637436 90.228516 75.222656 C 88.680523 74.807872 87.433685 73.9881 86.722656 73.15625 C 86.011627 72.3244 85.860711 71.629068 86.007812 71.080078 C 86.154915 70.531087 86.632368 70.00356 87.664062 69.638672 C 88.179911 69.456227 88.810994 69.342831 89.505859 69.328125 z M 71.519531 85.957031 C 71.985571 85.970411 72.532362 86.189385 73.15625 86.722656 C 73.9881 87.433685 74.807872 88.680523 75.222656 90.228516 C 75.63744 91.776508 75.552393 93.267128 75.1875 94.298828 C 74.822611 95.330518 74.295083 95.806025 73.746094 95.953125 C 73.197103 96.100235 72.499819 95.951124 71.667969 95.240234 C 70.836118 94.529204 70.018299 93.282371 69.603516 91.734375 C 69.188733 90.186382 69.273779 88.695757 69.638672 87.664062 C 70.00356 86.632368 70.531087 86.154915 71.080078 86.007812 C 71.217326 85.971033 71.364185 85.952572 71.519531 85.957031 z "
     style="color:#000000;overflow:visible;fill:#000080;stroke:none;stroke-width:7.02209;stroke-linecap:round;stroke-linejoin:round;stroke-dasharray:14.0442, 7.02209000000000039;stroke-dashoffset:35.1104;stop-color:#000000"
     id="rect830" />
</svg>
